src/assets/icons/weeks,fancy,06.svg

<svg width="48" height="48" viewBox="0 0 48 48" fill="none" xmlns="http://www.w3.org/2000/svg">
<rect opacity="0.2" x="4" y="6" width="40" height="40" rx="4" fill="black"/>
<path d="M24.2237 41.2784C28.7578 41.2983 31.8501 38.3253 31.8402 34.179C31.8501 30.3608 29.1854 27.6065 25.576 27.6065C23.3388 27.6065 21.3601 28.6804 20.4453 30.4801H20.3061C20.326 26.5128 21.718 24.0469 24.3729 24.0469C25.9339 24.0469 27.0575 24.902 27.3857 26.3239H31.6314C31.2237 22.973 28.4396 20.358 24.3729 20.358C19.3416 20.358 16.1101 24.4347 16.0902 31.2756C16.0803 38.733 20.0376 41.2585 24.2237 41.2784ZM24.2038 37.8977C22.2152 37.8977 20.7436 36.2969 20.7436 34.3082C20.7536 32.3295 22.255 30.7188 24.2337 30.7188C26.2223 30.7188 27.674 32.2798 27.6641 34.2983C27.674 36.3366 26.1925 37.8977 24.2038 37.8977Z" fill="black"/>
<g opacity="0.4">
<path d="M10 4C10 2.89543 10.8954 2 12 2C13.1046 2 14 2.89543 14 4V8C14 9.10457 13.1046 10 12 10C10.8954 10 10 9.10457 10 8V4Z" fill="black"/>
<path d="M34 4C34 2.89543 34.8954 2 36 2C37.1046 2 38 2.89543 38 4V8C38 9.10457 37.1046 10 36 10C34.8954 10 34 9.10457 34 8V4Z" fill="black"/>
</g>
<path fill-rule="evenodd" clip-rule="evenodd" d="M10 6.00869C7.52043 6.04456 6.11466 6.22849 5.17157 7.17157C4 8.34315 4 10.2288 4 14V16H44V14C44 10.2288 44 8.34315 42.8284 7.17157C41.8853 6.22849 40.4796 6.04456 38 6.00869V8C38 9.10457 37.1046 10 36 10C34.8954 10 34 9.10457 34 8V6H14V8C14 9.10457 13.1046 10 12 10C10.8954 10 10 9.10457 10 8V6.00869Z" fill="black"/>
</svg>

<svg xmlns="http://www.w3.org/2000/svg" width="48" height="48" fill="none" viewBox="0 0 48 48">
  <rect width="40" height="40" x="4" y="6" fill="#000" opacity=".2" rx="4"/>
  <path fill="#000" d="M24.224 41.278c4.534.02 7.626-2.953 7.616-7.099.01-3.818-2.655-6.573-6.264-6.573-2.237 0-4.216 1.074-5.13 2.874h-.14c.02-3.967 1.412-6.433 4.067-6.433 1.56 0 2.684.855 3.013 2.277h4.245c-.407-3.351-3.191-5.966-7.258-5.966-5.031 0-8.263 4.077-8.283 10.918-.01 7.457 3.948 9.982 8.134 10.002zm-.02-3.38c-1.989 0-3.46-1.601-3.46-3.59.01-1.978 1.511-3.59 3.49-3.59 1.988 0 3.44 1.562 3.43 3.58.01 2.039-1.472 3.6-3.46 3.6z"/>
  <g opacity=".4">
    <path fill="#000" d="M10 4a2 2 0 114 0v4a2 2 0 11-4 0V4zM34 4a2 2 0 114 0v4a2 2 0 11-4 0V4z"/>
  </g>
  <path fill="#000" fill-rule="evenodd" d="M10 6.009c-2.48.036-3.885.22-4.828 1.163C4 8.343 4 10.229 4 14v2h40v-2c0-3.771 0-5.657-1.172-6.828-.943-.944-2.348-1.127-4.828-1.163V8a2 2 0 11-4 0V6H14v2a2 2 0 11-4 0V6.009z" clip-rule="evenodd"/>
</svg>
